svg/N_Arrows/27.svg

<svg xmlns="http://www.w3.org/2000/svg" viewBox="0 0 744.09 1052.36" xmlns:xlink="http://www.w3.org/1999/xlink"><defs><path id="0" d="m425.65 506.95l-25 4.766 25.357-76.34-.357 71.57z" stroke="#000" fill-rule="evenodd" stroke-width="1.29" fill="none"/><path id="1" d="m426.38 506.86l26.06 5.447-26.429-78.12c0 18.548.374 46.513.374 72.67" fill-rule="evenodd"/><path id="2" d="m321.43 270.93h68.57v74.28h-68.57z"/><path id="3" d="m376.49 545.64l.098-9.02 5.804 10-5.901-.985" fill-rule="evenodd"/></defs><g transform="translate(180-151.43)"><g font-family="Arial Black" font-size="56"><flowRoot transform="translate(.175 234.63)"><flowRegion><path d="m321.43 270.93h68.57v74.28h-68.57z"/></flowRegion><flowPara>E</flowPara></flowRoot><flowRoot transform="translate(-157.57 393.5)"><flowRegion><use xlink:href="#2"/></flowRegion><flowPara>S</flowPara></flowRoot><flowRoot transform="translate(-161.81 79.34)"><flowRegion><use xlink:href="#2"/></flowRegion><flowPara>N</flowPara></flowRoot><flowRoot transform="translate(-333.91 236.92)"><flowRegion><use xlink:href="#2"/></flowRegion><flowPara>W</flowPara></flowRoot></g><g transform="matrix(.50099 0 0 .42925 32.797 318.02)"><path d="M320.71429 496.64789A20 20 0 1 1 280.71429 496.64789 20 20 0 1 1 320.71429 496.64789" opacity=".97"/><g fill="none" stroke="#000"><path d="M160 533.07648A28.571428 28.571428 0 1 1 102.85715 533.07648 28.571428 28.571428 0 1 1 160 533.07648z" transform="translate(169.29-36.429)" opacity=".97" stroke-linecap="square" stroke-width="8.101"/><g fill-rule="evenodd"><path d="m300.77 477.36v-8.616l.253.253"/><path d="m320 497.36h6.429"/><path d="m281.25 497.36h-6.25"/><path d="m300.54 515.76v5.893"/></g><path d="M242.85714 495.75504A29.464285 29.464285 0 1 1 183.92857 495.75504 29.464285 29.464285 0 1 1 242.85714 495.75504z" transform="matrix(1.37417 0 0 1.3823 7.834-188.4)" opacity=".97" stroke-linecap="square" stroke-width="4.401"/><g fill-rule="evenodd"><path d="m300.71 528.61l.179 7.143"/><path d="m333.39 497.36h6.607"/></g><path d="M275 497.36218A47.857143 47.857143 0 1 1 179.28571 497.36218 47.857143 47.857143 0 1 1 275 497.36218z" transform="matrix(1.09519 0 0 1.08026 51.947-39.917)" opacity=".97" stroke-linecap="square" stroke-width="6.07"/><g fill-rule="evenodd"><path d="m258.04 497.36h-8.04"/><path d="m300.89 540.4v5.536"/><path d="m344.29 497.36h7.143"/><path d="m301.07 464.33l-.179-8.04"/><path d="m300.71 453.97l-.179-7.679"/><path d="m270 497.36h-7.143"/></g><path d="M207.08128 460.16025A58.33631 58.33631 0 1 1 90.40865 460.16025 58.33631 58.33631 0 1 1 207.08128 460.16025z" transform="matrix(1.11111 0 0 1.11111 135.75-13.499)" opacity=".97" stroke-linecap="square" stroke-width="6.07"/><g fill-rule="evenodd"><path d="m300.77 443.75l-.253-10.607"/><path d="m356.08 497.36h9.344"/><path d="m245.97 496.78h-7.324"/><path d="m301.07 551.83v8.929"/></g></g><g transform="matrix(-1.82698 1.82698-1.99281-1.99281 2128.49 939.96)"><path d="m376.52 545.73l.195-9.105-5.804 10 5.608-.895" fill-rule="evenodd"/><use xlink:href="#3"/></g><g transform="matrix(1.82698 1.82698-1.99281 1.99281 747.96-1325.59)"><path d="m376.52 545.73l.195-9.105-5.804 10 5.608-.895" fill-rule="evenodd"/><use xlink:href="#3"/></g><g transform="matrix(-1.82698-1.82698 1.99281-1.99281-144.89 2322.24)"><path d="m376.52 545.73l.195-9.105-5.804 10 5.608-.895" fill-rule="evenodd" id="4"/><use xlink:href="#3"/></g><g transform="matrix(1.82698-1.82698 1.99281 1.99281-1525.7 53.889)"><use xlink:href="#4"/><use xlink:href="#3"/></g></g><g transform="matrix(.78047 0 0 1.48353-149.68-249.45)"><use xlink:href="#0"/><path d="m426.38 506.86l26.06 5.447-26.429-78.12c0 18.548.374 46.513.374 72.67" fill-rule="evenodd"/></g><g transform="matrix(0 .78047-1.48353 0 968.87 201.24)"><use xlink:href="#0"/><use xlink:href="#1"/></g><g transform="matrix(-.78047 0 0-1.48353 515.77 1313.02)"><use xlink:href="#0"/><use xlink:href="#1"/></g><g transform="matrix(0-.74657 1.48353 0-602.28 852.08)"><use xlink:href="#0"/><use xlink:href="#1"/></g></g></svg>

<?xml version="1.0" encoding="UTF-8" standalone="no"?>
<!-- Created with Inkscape (http://www.inkscape.org/) -->
<svg
   xmlns:dc="http://purl.org/dc/elements/1.1/"
   xmlns:cc="http://web.resource.org/cc/"
   xmlns:rdf="http://www.w3.org/1999/02/22-rdf-syntax-ns#"
   xmlns:svg="http://www.w3.org/2000/svg"
   xmlns="http://www.w3.org/2000/svg"
   xmlns:sodipodi="http://sodipodi.sourceforge.net/DTD/sodipodi-0.dtd"
   xmlns:inkscape="http://www.inkscape.org/namespaces/inkscape"
   width="744.09448819"
   height="1052.3622047"
   id="svg2"
   sodipodi:version="0.32"
   inkscape:version="0.44.1"
   sodipodi:docbase="F:\QGIS_N_ARROWS\TOT"
   sodipodi:docname="FINALE.svg"
   inkscape:export-filename="F:\QGIS_N_ARROWS\TOT\FINALE.png"
   inkscape:export-xdpi="300"
   inkscape:export-ydpi="300">
  <defs
     id="defs4" />
  <sodipodi:namedview
     id="base"
     pagecolor="#ffffff"
     bordercolor="#666666"
     borderopacity="1.0"
     inkscape:pageopacity="0.0"
     inkscape:pageshadow="2"
     inkscape:zoom="0.35"
     inkscape:cx="246.71704"
     inkscape:cy="586.39624"
     inkscape:document-units="px"
     inkscape:current-layer="layer1"
     showgrid="true"
     inkscape:window-width="1280"
     inkscape:window-height="744"
     inkscape:window-x="-4"
     inkscape:window-y="-4" />
  <metadata
     id="metadata7">
    <rdf:RDF>
      <cc:Work
         rdf:about="">
        <dc:format>image/svg+xml</dc:format>
        <dc:type
           rdf:resource="http://purl.org/dc/dcmitype/StillImage" />
      </cc:Work>
    </rdf:RDF>
  </metadata>
  <g
     inkscape:label="Livello 1"
     inkscape:groupmode="layer"
     id="layer1">
    <g
       id="g3484"
       transform="translate(180,-151.4286)">
      <flowRoot
         transform="translate(0.174642,234.6305)"
         style="font-size:56px;font-family:Arial Black"
         id="flowRoot2029"
         xml:space="preserve"><flowRegion
           id="flowRegion2031"><rect
             style="font-size:56px;font-family:Arial Black"
             y="270.93362"
             x="321.42856"
             height="74.285713"
             width="68.571426"
             id="rect2033" /></flowRegion><flowPara
           id="flowPara2035">E</flowPara></flowRoot>      <flowRoot
         transform="translate(-157.5715,393.4978)"
         style="font-size:56px;font-family:Arial Black"
         id="flowRoot2037"
         xml:space="preserve"><flowRegion
           id="flowRegion2039"><rect
             style="font-size:56px;font-family:Arial Black"
             y="270.93362"
             x="321.42856"
             height="74.285713"
             width="68.571426"
             id="rect2041" /></flowRegion><flowPara
           id="flowPara2043">S</flowPara></flowRoot>      <flowRoot
         transform="translate(-161.8082,79.34044)"
         style="font-size:56px;font-family:Arial Black"
         id="flowRoot2045"
         xml:space="preserve"><flowRegion
           id="flowRegion2047"><rect
             style="font-size:56px;font-family:Arial Black"
             y="270.93362"
             x="321.42856"
             height="74.285713"
             width="68.571426"
             id="rect2049" /></flowRegion><flowPara
           id="flowPara2051">N</flowPara></flowRoot>      <flowRoot
         transform="translate(-333.9056,236.9242)"
         style="font-size:56px;font-family:Arial Black"
         id="flowRoot2053"
         xml:space="preserve"><flowRegion
           id="flowRegion2055"><rect
             style="font-size:56px;font-family:Arial Black"
             y="270.93362"
             x="321.42856"
             height="74.285713"
             width="68.571426"
             id="rect2057" /></flowRegion><flowPara
           id="flowPara2059">W</flowPara></flowRoot>      <g
         transform="matrix(0.500988,0,0,0.429254,32.79719,318.0163)"
         id="g3332">
        <path
           sodipodi:type="arc"
           style="opacity:0.97000002;fill:black;fill-opacity:1;stroke:none;stroke-width:8.10099983;stroke-linecap:square;stroke-linejoin:miter;stroke-miterlimit:4;stroke-dasharray:none;stroke-opacity:1"
           id="path2363"
           sodipodi:cx="300.71429"
           sodipodi:cy="496.64789"
           sodipodi:rx="20"
           sodipodi:ry="20"
           d="M 320.71429 496.64789 A 20 20 0 1 1  280.71429,496.64789 A 20 20 0 1 1  320.71429 496.64789 z" />
        <path
           sodipodi:type="arc"
           style="opacity:0.97000002;fill:none;fill-opacity:1;stroke:black;stroke-width:8.10099983;stroke-linecap:square;stroke-linejoin:miter;stroke-miterlimit:4;stroke-dasharray:none;stroke-opacity:1"
           id="path2365"
           sodipodi:cx="131.42857"
           sodipodi:cy="533.07648"
           sodipodi:rx="28.571428"
           sodipodi:ry="28.571428"
           d="M 160 533.07648 A 28.571428 28.571428 0 1 1  102.85715,533.07648 A 28.571428 28.571428 0 1 1  160 533.07648 z"
           transform="translate(169.2857,-36.42857)" />
        <path
           style="fill:none;fill-rule:evenodd;stroke:black;stroke-width:1px;stroke-linecap:butt;stroke-linejoin:miter;stroke-opacity:1"
           d="M 300.77292,477.36218 L 300.77292,468.74655 L 300.77292,468.74655 L 301.02546,468.99909"
           id="path2367" />
        <path
           style="fill:none;fill-rule:evenodd;stroke:black;stroke-width:1px;stroke-linecap:butt;stroke-linejoin:miter;stroke-opacity:1"
           d="M 320,497.36218 L 326.42857,497.36218 L 326.42857,497.36218 L 326.42857,497.36218"
           id="path2375" />
        <path
           style="fill:none;fill-rule:evenodd;stroke:black;stroke-width:1px;stroke-linecap:butt;stroke-linejoin:miter;stroke-opacity:1"
           d="M 281.25,497.36218 L 275,497.36218"
           id="path2377" />
        <path
           style="fill:none;fill-rule:evenodd;stroke:black;stroke-width:1px;stroke-linecap:butt;stroke-linejoin:miter;stroke-opacity:1"
           d="M 300.53571,515.75504 L 300.53571,521.6479"
           id="path2379" />
        <path
           sodipodi:type="arc"
           style="opacity:0.97000002;fill:none;fill-opacity:1;stroke:black;stroke-width:4.40057325;stroke-linecap:square;stroke-linejoin:miter;stroke-miterlimit:4;stroke-dasharray:none;stroke-opacity:1"
           id="path2381"
           sodipodi:cx="213.39285"
           sodipodi:cy="495.75504"
           sodipodi:rx="29.464285"
           sodipodi:ry="29.464285"
           d="M 242.85714 495.75504 A 29.464285 29.464285 0 1 1  183.92857,495.75504 A 29.464285 29.464285 0 1 1  242.85714 495.75504 z"
           transform="matrix(1.374169,0,0,1.382302,7.83358,-188.3956)" />
        <path
           style="fill:none;fill-rule:evenodd;stroke:black;stroke-width:1px;stroke-linecap:butt;stroke-linejoin:miter;stroke-opacity:1"
           d="M 300.71429,528.61218 L 300.89286,535.75504"
           id="path3268" />
        <path
           style="fill:none;fill-rule:evenodd;stroke:black;stroke-width:1px;stroke-linecap:butt;stroke-linejoin:miter;stroke-opacity:1"
           d="M 333.39286,497.36218 L 340,497.36218"
           id="path3270" />
        <path
           sodipodi:type="arc"
           style="opacity:0.97000002;fill:none;fill-opacity:1;stroke:black;stroke-width:6.06500006;stroke-linecap:square;stroke-linejoin:miter;stroke-miterlimit:4;stroke-dasharray:none;stroke-opacity:1"
           id="path3276"
           sodipodi:cx="227.14285"
           sodipodi:cy="497.36218"
           sodipodi:rx="47.857143"
           sodipodi:ry="47.857143"
           d="M 275 497.36218 A 47.857143 47.857143 0 1 1  179.28571,497.36218 A 47.857143 47.857143 0 1 1  275 497.36218 z"
           transform="matrix(1.095189,0,0,1.080264,51.94672,-39.91708)" />
        <path
           style="fill:none;fill-rule:evenodd;stroke:black;stroke-width:1px;stroke-linecap:butt;stroke-linejoin:miter;stroke-opacity:1"
           d="M 258.03571,497.36218 L 250,497.36218"
           id="path3278" />
        <path
           style="fill:none;fill-rule:evenodd;stroke:black;stroke-width:1px;stroke-linecap:butt;stroke-linejoin:miter;stroke-opacity:1"
           d="M 300.89286,540.3979 L 300.89286,545.93361"
           id="path3280" />
        <path
           style="fill:none;fill-rule:evenodd;stroke:black;stroke-width:1px;stroke-linecap:butt;stroke-linejoin:miter;stroke-opacity:1"
           d="M 344.28572,497.36218 L 351.42857,497.36218"
           id="path3282" />
        <path
           style="fill:none;fill-rule:evenodd;stroke:black;stroke-width:1px;stroke-linecap:butt;stroke-linejoin:miter;stroke-opacity:1"
           d="M 301.07143,464.32647 L 300.89286,456.29075"
           id="path3284" />
        <path
           style="fill:none;fill-rule:evenodd;stroke:black;stroke-width:1px;stroke-linecap:butt;stroke-linejoin:miter;stroke-opacity:1"
           d="M 300.71429,453.96932 L 300.53571,446.29075"
           id="path3286" />
        <path
           style="fill:none;fill-rule:evenodd;stroke:black;stroke-width:1px;stroke-linecap:butt;stroke-linejoin:miter;stroke-opacity:1"
           d="M 270,497.36218 L 262.85714,497.36218"
           id="path3288" />
        <path
           sodipodi:type="arc"
           style="opacity:0.97000002;fill:none;fill-opacity:1;stroke:black;stroke-width:6.06500006;stroke-linecap:square;stroke-linejoin:miter;stroke-miterlimit:4;stroke-dasharray:none;stroke-opacity:1"
           id="path3290"
           sodipodi:cx="148.74496"
           sodipodi:cy="460.16025"
           sodipodi:rx="58.336311"
           sodipodi:ry="58.336311"
           d="M 207.08128 460.16025 A 58.336311 58.336311 0 1 1  90.408653,460.16025 A 58.336311 58.336311 0 1 1  207.08128 460.16025 z"
           transform="matrix(1.111107,0,0,1.111107,135.7538,-13.49903)" />
        <path
           style="fill:none;fill-rule:evenodd;stroke:black;stroke-width:1px;stroke-linecap:butt;stroke-linejoin:miter;stroke-opacity:1"
           d="M 300.77292,443.74527 L 300.52038,433.13867"
           id="path3292" />
        <path
           style="fill:none;fill-rule:evenodd;stroke:black;stroke-width:1px;stroke-linecap:butt;stroke-linejoin:miter;stroke-opacity:1"
           d="M 356.07877,497.36218 L 365.42268,497.36218"
           id="path3294" />
        <path
           style="fill:none;fill-rule:evenodd;stroke:black;stroke-width:1px;stroke-linecap:butt;stroke-linejoin:miter;stroke-opacity:1"
           d="M 245.97215,496.77828 L 238.64854,496.77828"
           id="path3296" />
        <path
           style="fill:none;fill-rule:evenodd;stroke:black;stroke-width:1px;stroke-linecap:butt;stroke-linejoin:miter;stroke-opacity:1"
           d="M 301.07143,551.82647 L 301.07143,560.75504"
           id="path3298" />
        <g
           id="g3310"
           transform="matrix(-1.826981,1.826981,-1.992814,-1.992814,2128.49,939.9551)">
          <path
             id="path3300"
             d="M 376.5168,545.73446 L 376.71228,536.6295 L 370.9087,546.62956 L 376.5168,545.73446 z "
             style="fill:black;fill-opacity:1;fill-rule:evenodd;stroke-width:1px;stroke-linecap:butt;stroke-linejoin:miter;stroke-opacity:1"
             sodipodi:nodetypes="cccc" />
          <path
             id="path3302"
             d="M 376.48827,545.64485 L 376.58601,536.6295 L 382.38958,546.62956 L 376.48827,545.64485 z "
             style="fill:black;fill-opacity:1;fill-rule:evenodd;stroke-width:1px;stroke-linecap:butt;stroke-linejoin:miter;stroke-opacity:1"
             sodipodi:nodetypes="cccc" />
        </g>
        <g
           id="g3314"
           transform="matrix(1.826981,1.826981,-1.992814,1.992814,747.9553,-1325.587)">
          <path
             id="path3316"
             d="M 376.5168,545.73446 L 376.71228,536.6295 L 370.9087,546.62956 L 376.5168,545.73446 z "
             style="fill:black;fill-opacity:1;fill-rule:evenodd;stroke-width:1px;stroke-linecap:butt;stroke-linejoin:miter;stroke-opacity:1"
             sodipodi:nodetypes="cccc" />
          <path
             id="path3318"
             d="M 376.48827,545.64485 L 376.58601,536.6295 L 382.38958,546.62956 L 376.48827,545.64485 z "
             style="fill:black;fill-opacity:1;fill-rule:evenodd;stroke-width:1px;stroke-linecap:butt;stroke-linejoin:miter;stroke-opacity:1"
             sodipodi:nodetypes="cccc" />
        </g>
        <g
           id="g3320"
           transform="matrix(-1.826981,-1.826981,1.992814,-1.992814,-144.8943,2322.242)">
          <path
             id="path3322"
             d="M 376.5168,545.73446 L 376.71228,536.6295 L 370.9087,546.62956 L 376.5168,545.73446 z "
             style="fill:black;fill-opacity:1;fill-rule:evenodd;stroke-width:1px;stroke-linecap:butt;stroke-linejoin:miter;stroke-opacity:1"
             sodipodi:nodetypes="cccc" />
          <path
             id="path3324"
             d="M 376.48827,545.64485 L 376.58601,536.6295 L 382.38958,546.62956 L 376.48827,545.64485 z "
             style="fill:black;fill-opacity:1;fill-rule:evenodd;stroke-width:1px;stroke-linecap:butt;stroke-linejoin:miter;stroke-opacity:1"
             sodipodi:nodetypes="cccc" />
        </g>
        <g
           id="g3326"
           transform="matrix(1.826981,-1.826981,1.992814,1.992814,-1525.701,53.88859)">
          <path
             id="path3328"
             d="M 376.5168,545.73446 L 376.71228,536.6295 L 370.9087,546.62956 L 376.5168,545.73446 z "
             style="fill:black;fill-opacity:1;fill-rule:evenodd;stroke-width:1px;stroke-linecap:butt;stroke-linejoin:miter;stroke-opacity:1"
             sodipodi:nodetypes="cccc" />
          <path
             id="path3330"
             d="M 376.48827,545.64485 L 376.58601,536.6295 L 382.38958,546.62956 L 376.48827,545.64485 z "
             style="fill:black;fill-opacity:1;fill-rule:evenodd;stroke-width:1px;stroke-linecap:butt;stroke-linejoin:miter;stroke-opacity:1"
             sodipodi:nodetypes="cccc" />
        </g>
      </g>
      <g
         transform="matrix(0.780471,0,0,1.483532,-149.675,-249.4542)"
         id="g3377">
        <path
           style="fill:none;fill-rule:evenodd;stroke:black;stroke-width:1.29021394px;stroke-linecap:butt;stroke-linejoin:miter;stroke-opacity:1"
           d="M 425.64511,506.95071 L 400.64511,511.71708 L 426.00225,435.37917 L 425.64511,506.95071 z "
           id="path3367"
           sodipodi:nodetypes="cccc" />
        <path
           style="fill:black;fill-opacity:1;fill-rule:evenodd;stroke-width:1px;stroke-linecap:butt;stroke-linejoin:miter;stroke-opacity:1"
           d="M 426.37577,506.86431 L 452.43082,512.31159 L 426.00225,434.19228 C 426.00225,452.74031 426.37577,480.70549 426.37577,506.86431 z "
           id="path3369"
           sodipodi:nodetypes="cccc" />
      </g>
      <g
         transform="matrix(0,0.780471,-1.483532,0,968.8701,201.2373)"
         id="g3381">
        <path
           style="fill:none;fill-rule:evenodd;stroke:black;stroke-width:1.29021394px;stroke-linecap:butt;stroke-linejoin:miter;stroke-opacity:1"
           d="M 425.64511,506.95071 L 400.64511,511.71708 L 426.00225,435.37917 L 425.64511,506.95071 z "
           id="path3383"
           sodipodi:nodetypes="cccc" />
        <path
           style="fill:black;fill-opacity:1;fill-rule:evenodd;stroke-width:1px;stroke-linecap:butt;stroke-linejoin:miter;stroke-opacity:1"
           d="M 426.37577,506.86431 L 452.43082,512.31159 L 426.00225,434.19228 C 426.00225,452.74031 426.37577,480.70549 426.37577,506.86431 z "
           id="path3385"
           sodipodi:nodetypes="cccc" />
      </g>
      <g
         transform="matrix(-0.780471,0,0,-1.483532,515.7676,1313.018)"
         id="g3387">
        <path
           style="fill:none;fill-rule:evenodd;stroke:black;stroke-width:1.29021394px;stroke-linecap:butt;stroke-linejoin:miter;stroke-opacity:1"
           d="M 425.64511,506.95071 L 400.64511,511.71708 L 426.00225,435.37917 L 425.64511,506.95071 z "
           id="path3389"
           sodipodi:nodetypes="cccc" />
        <path
           style="fill:black;fill-opacity:1;fill-rule:evenodd;stroke-width:1px;stroke-linecap:butt;stroke-linejoin:miter;stroke-opacity:1"
           d="M 426.37577,506.86431 L 452.43082,512.31159 L 426.00225,434.19228 C 426.00225,452.74031 426.37577,480.70549 426.37577,506.86431 z "
           id="path3391"
           sodipodi:nodetypes="cccc" />
      </g>
      <g
         transform="matrix(0,-0.74657,1.483532,0,-602.2781,852.0784)"
         id="g3393">
        <path
           style="fill:none;fill-rule:evenodd;stroke:black;stroke-width:1.29021394px;stroke-linecap:butt;stroke-linejoin:miter;stroke-opacity:1"
           d="M 425.64511,506.95071 L 400.64511,511.71708 L 426.00225,435.37917 L 425.64511,506.95071 z "
           id="path3395"
           sodipodi:nodetypes="cccc" />
        <path
           style="fill:black;fill-opacity:1;fill-rule:evenodd;stroke-width:1px;stroke-linecap:butt;stroke-linejoin:miter;stroke-opacity:1"
           d="M 426.37577,506.86431 L 452.43082,512.31159 L 426.00225,434.19228 C 426.00225,452.74031 426.37577,480.70549 426.37577,506.86431 z "
           id="path3397"
           sodipodi:nodetypes="cccc" />
      </g>
    </g>
  </g>
</svg>
